X: 92
T:Muiñeira de Manuel Villanueva
M:6/8
L:1/8
Q:200
C:Trad.
S:Rep. Manuel Villanueva
R:Muiñeira
K:F
A | BAB GAB | AcA F2 A| BAB G2 A| GEC- C2 A| BAB GAB | AcA F2 A |
BAB GcB| G4 cB |: GAB FGA | DFE CEF | GEG FD=B, |1 C4 c"     3 veces"B :
|2 |: C4 {EF}ED |
EFD =B,FE | GEC- CEF | AGE GFD | (4FGFE CED | EFD =B,FE |GEC- CEF |GEG F
D=B, :||
C4-C2

